macos-cursors.iconjar/icons/move.svg

<svg height="46" viewBox="0 0 34 46" width="34" xmlns="http://www.w3.org/2000/svg" xmlns:xlink="http://www.w3.org/1999/xlink"><filter id="a" height="167.5%" width="167.5%" x="-33.8%" y="-33.8%"><feOffset dx="0" dy="1" in="SourceAlpha" result="shadowOffsetOuter1"/><feGaussianBlur in="shadowOffsetOuter1" result="shadowBlurOuter1" stdDeviation=".9"/><feColorMatrix in="shadowBlurOuter1" result="shadowMatrixOuter1" type="matrix" values="0 0 0 0 0   0 0 0 0 0   0 0 0 0 0  0 0 0 0.65 0"/><feMerge><feMergeNode in="shadowMatrixOuter1"/><feMergeNode in="SourceGraphic"/></feMerge></filter><g fill="none" filter="url(#a)" transform="translate(5 5)"><path d="m8 0-8 8 5.22 5.22 2.78 2.78 8-8zm-2 11h-1v-1h1zm0-5h-1v-1h1zm5 5h-1v-1h1zm-1-6h1v1h-1z" fill="#fff"/><g fill="#000"><path d="m14.55 7.98-2.56-2.81v1.83h-4-4.01v-1.83l-2.57 2.81 2.57 2.81v-1.81h4.01 4v1.81z"/><path d="m8.97 7.99h.01v-4h1.81l-2.8-2.57-2.81 2.57h1.81v4 4h-1.82l2.8 2.57 2.81-2.57h-1.81z"/></g></g></svg>

<svg width="20" height="20" viewBox="0 0 20 20" xmlns="http://www.w3.org/2000/svg"><defs><filter x="-20%" y="-13.8%" width="140%" height="140%" filterUnits="objectBoundingBox" id="a"><feOffset dy="1" in="SourceAlpha" result="shadowOffsetOuter1"/><feGaussianBlur stdDeviation=".9" in="shadowOffsetOuter1" result="shadowBlurOuter1"/><feColorMatrix values="0 0 0 0 0 0 0 0 0 0 0 0 0 0 0 0 0 0 0.65 0" in="shadowBlurOuter1" result="shadowMatrixOuter1"/><feMerge><feMergeNode in="shadowMatrixOuter1"/><feMergeNode in="SourceGraphic"/></feMerge></filter></defs><g filter="url(#a)" transform="translate(2 2)" fill="none"><path d="M8 0L0 8l5.22 5.22L8 16l8-8-8-8zM6 11H5v-1h1v1zm0-5H5V5h1v1zm5 5h-1v-1h1v1zm-1-6h1v1h-1V5z" fill="#FFF"/><path fill="#000" d="M14.55 7.98l-2.56-2.81V7H3.98V5.17L1.41 7.98l2.57 2.81V8.98h8.01v1.81z"/><path fill="#000" d="M8.97 7.99h.01v-4h1.81l-2.8-2.57-2.81 2.57h1.81v8H5.17l2.8 2.57 2.81-2.57H8.97z"/></g></svg>
